src/24/panel/indicator-keyboard-Th.svg

<svg viewBox="0 0 24 24" xmlns="http://www.w3.org/2000/svg">
 <path d="m 4 2 c -1.108 0 -2 0.892 -2 2 l 0 16 c 0 1.108 0.892 2 2 2 l 16 0 c 1.108 0 2 -0.892 2 -2 l 0 -16 c 0 -1.108 -0.892 -2 -2 -2 l -16 0 z m 10.451 4.801 0 3.236 c 0.167 -0.058 0.358 -0.109 0.574 -0.15 0.225 -0.042 0.445 -0.063 0.662 -0.063 0.525 0 0.959 0.077 1.301 0.227 0.35 0.142 0.63 0.345 0.838 0.611 0.208 0.258 0.354 0.571 0.438 0.938 0.092 0.367 0.137 0.775 0.137 1.225 l 0 3.676 -1.512 0 0 -3.438 c 0 -0.35 -0.026 -0.645 -0.076 -0.887 -0.042 -0.25 -0.116 -0.452 -0.225 -0.602 -0.1 -0.158 -0.237 -0.269 -0.412 -0.336 -0.175 -0.075 -0.392 -0.113 -0.65 -0.113 -0.2 0 -0.403 0.021 -0.611 0.063 -0.208 0.042 -0.363 0.08 -0.463 0.113 l 0 5.199 -1.514 0 0 -9.449 1.514 -0.25 z m -9.539 1.037 6.912 0 0 1.361 -2.662 0 0 7.301 -1.588 0 0 -7.301 -2.662 0 0 -1.361 z" style="fill:#ececec;fill-opacity:1"/>
</svg>

<svg viewBox="0 0 24 24" xmlns="http://www.w3.org/2000/svg"><path d="M4 2c-1.108 0-2 .892-2 2v16c0 1.108.892 2 2 2h16c1.108 0 2-.892 2-2V4c0-1.108-.892-2-2-2H4zm10.451 4.801v3.236c.167-.058.358-.109.574-.15.225-.042.445-.063.662-.063.525 0 .959.077 1.301.227.35.142.63.345.838.611.208.258.354.571.438.938.092.367.137.775.137 1.225v3.676h-1.512v-3.438c0-.35-.026-.645-.076-.887-.042-.25-.116-.452-.225-.602a.821.821 0 0 0-.412-.336 1.653 1.653 0 0 0-.65-.113c-.2 0-.403.021-.611.063-.208.042-.363.08-.463.113V16.5h-1.514V7.051l1.514-.25zM4.912 7.838h6.912v1.361H9.162V16.5H7.574V9.199H4.912V7.838z" fill="#ececec"/></svg>
